communes/4318.svg

<?xml version="1.0" encoding="UTF-8"?>
<!DOCTYPE svg  PUBLIC '-//W3C//DTD SVG 1.1//EN'  'http://www.w3.org/Graphics/SVG/1.1/DTD/svg11.dtd'>
<svg width="520" height="585" version="1.1" viewBox="0 0 100 112.5" xmlns="http://www.w3.org/2000/svg" xmlns:xlink="http://www.w3.org/1999/xlink">
<title>Wappen von Schneisingen</title>
<desc>Wappen der Schweizer Gemeinde Schneisingen, Kanton Aargau</desc>
<defs>
<clipPath id="b">
<path d="m2 2h96v60.5a48 48 0 0 1-96 0z"/>
</clipPath>
</defs>
<path d="m1 1h98v61.5a49 49 0 0 1-98 0z" fill="#0093dd" stroke="#000" stroke-width="2"/>
<g clip-path="url(#b)" fill="#094" stroke="#000">
<path d="m16 112 28.5-47c3-5 8-5 11 0l28.5 47"/>
<path d="m-9 112 28.5-47c3-5 8.5-5 11 0l19.5 47 19.5-47c2.5-5 8-5 11 0l28.5 47"/>
</g>
<path id="a" d="m21 24.6 4-12.6 4 12.6 12.9-2.9-8.9 9.8 8.9 9.8-12.9-2.9-4 12.6-4-12.6-12.9 2.9 8.9-9.8-8.9-9.8z" fill="#fcdb00" stroke="#000"/>
<use x="50" xlink:href="#a"/>
</svg>

<?xml version="1.0" encoding="utf-8" standalone="no"?>
<!DOCTYPE svg PUBLIC "-//W3C//DTD SVG 1.1//EN" "http://www.w3.org/Graphics/SVG/1.1/DTD/svg11.dtd">
<svg version="1.1"
   xmlns="http://www.w3.org/2000/svg"
   xmlns:xlink="http://www.w3.org/1999/xlink"
   width="520" height="585" viewBox="0,0 100,112.5">
  <title>Wappen von Schneisingen</title>
  <desc>Wappen der Schweizer Gemeinde Schneisingen, Kanton Aargau</desc>
  <defs>
    <clipPath id="cpSchild"> <path d="M 2,2 H 98 V 62.5 A 48,48 0 0,1 2,62.5 z" /> </clipPath>
  </defs>
  <path d="M 1,1 H 99 V 62.5 A 49,49 0 0,1 1,62.5 z" stroke="black" stroke-width="2" fill="#0093dd" />
  <g stroke="black" stroke-width="1" fill="#009944" clip-path="url(#cpSchild)">
    <path d="M 16,112 L 44.5,65 c 3,-5 8,-5 11,0 L 84,112" />
    <path d="M -9,112 L 19.5,65 c 3,-5 8.5,-5 11,0 L 50,112 69.5,65 c 2.5,-5 8,-5 11,0 L 109,112" />
  </g>
  <path d="M 21,24.6 L 25,12 29,24.6 41.9,21.7 33,31.5 41.9,41.3 29,38.4 25,51 21,38.4 8.1,41.3 17,31.5 8.1,21.7 z"
        id="stern" stroke="black" stroke-width="1" fill="#fcdb00" />
  <use x="50" xlink:href="#stern" />
</svg>
